data/cards/self-care/sleeping.svg

<svg width="512" height="512" viewBox="0 0 512 512" fill="none" xmlns="http://www.w3.org/2000/svg">
<g clip-path="url(#clip0)">
<path d="M80.752 167.883H431.248V334.064H80.752V167.883Z" fill="#EED076"/>
<path d="M388.508 37.1094H123.492C93.882 37.1094 69.879 61.1124 69.879 90.7224V167.882C69.879 197.492 93.883 221.495 123.492 221.495H388.508C418.118 221.495 442.121 197.491 442.121 167.882V90.7224C442.121 61.1124 418.118 37.1094 388.508 37.1094Z" fill="#8DAEE1"/>
<path d="M419.1 131.647C419.792 96.3114 406.851 63.3244 383.991 37.1094H123.492C115.828 37.1094 108.547 38.7284 101.953 41.6254C104.011 48.3714 106.646 55.7754 109.955 62.9434C99.216 82.8144 92.869 104.347 92.869 128.945C92.869 163.096 105.429 195.354 128.576 221.494H388.507C418.117 221.494 442.12 197.491 442.12 167.881V141.151C435.227 136.387 427.354 133.14 419.1 131.647Z" fill="#6A95D6"/>
<path d="M428.797 170.201C418.27 159.141 400.772 158.708 389.712 169.236C350.681 206.387 309.758 221.174 301.855 221.952C286.762 222.001 274.464 234.172 274.307 249.311C274.149 264.578 286.398 277.083 301.665 277.241C301.8 277.242 301.934 277.243 302.071 277.243C328.296 277.243 383.599 251.387 427.833 209.286C438.892 198.759 439.324 181.26 428.797 170.201Z" fill="#FFD3BD"/>
<path d="M380.049 177.949C344.164 208.711 309.107 221.237 301.855 221.95C286.762 221.999 274.464 234.17 274.307 249.309C274.149 264.576 286.398 277.081 301.665 277.239C301.8 277.24 301.934 277.241 302.071 277.241C325.962 277.241 373.981 255.777 415.782 220.128C394.74 212.214 383.403 192.649 380.049 177.949Z" fill="#B0ADE2"/>
<path d="M279.483 216.985H232.517C200.64 216.985 174.798 242.826 174.798 274.704V338.684C174.798 383.53 211.153 419.886 256 419.886C300.846 419.886 337.202 383.531 337.202 338.684V274.704C337.202 242.827 311.36 216.985 279.483 216.985Z" fill="#D1C4E9"/>
<path d="M320.071 68.1089C317.569 66.4909 314.223 67.9879 313.781 70.9339C312.792 77.5299 310.61 84.8899 307.979 89.9029C306.583 92.5629 303.488 93.8079 300.616 92.9239C284.521 87.9679 265.196 71.5639 257.971 58.8299C256.799 56.7639 254.151 56.0659 252.163 57.3659C219.292 78.8599 152.423 82.8789 133.571 84.6319C127.261 98.3039 123.774 113.263 123.774 128.947C123.774 193.653 182.973 246.107 256 246.107C329.026 246.107 388.226 193.653 388.226 128.947C388.226 116.787 386.134 105.061 382.254 94.0329C367.663 93.8759 335.347 77.9869 320.071 68.1089Z" fill="#FFD3BD"/>
<path d="M180.533 178.782C195.912 178.782 208.379 168.854 208.379 156.607C208.379 144.36 195.912 134.432 180.533 134.432C165.154 134.432 152.687 144.36 152.687 156.607C152.687 168.854 165.154 178.782 180.533 178.782Z" fill="#EDA1AB"/>
<path d="M331.467 178.782C346.846 178.782 359.313 168.854 359.313 156.607C359.313 144.36 346.846 134.432 331.467 134.432C316.088 134.432 303.621 144.36 303.621 156.607C303.621 168.854 316.088 178.782 331.467 178.782Z" fill="#EDA1AB"/>
<path d="M196.761 141.699C189.086 141.699 181.788 138.376 176.74 132.581C174.018 129.458 174.344 124.721 177.467 121.999C180.589 119.278 185.327 119.603 188.048 122.726C190.248 125.251 193.424 126.699 196.761 126.699C200.098 126.699 203.275 125.251 205.476 122.726C208.197 119.602 212.934 119.278 216.057 122C219.18 124.722 219.504 129.46 216.783 132.581C211.732 138.376 204.435 141.699 196.761 141.699Z" fill="#4E5660"/>
<path d="M315.239 141.699C307.565 141.699 300.267 138.376 295.218 132.581C292.496 129.459 292.821 124.721 295.944 122C299.066 119.278 303.804 119.603 306.525 122.726C308.726 125.251 311.903 126.699 315.24 126.699C318.577 126.699 321.753 125.251 323.954 122.726C326.674 119.602 331.412 119.278 334.535 122C337.658 124.722 337.982 129.46 335.261 132.581C330.21 138.376 322.912 141.699 315.239 141.699Z" fill="#4E5660"/>
<path d="M267.109 147.266C267.109 140.723 262.135 135.419 256 135.419C249.865 135.419 244.891 140.723 244.891 147.266C244.891 153.809 249.864 159.113 256 159.113C262.135 159.113 267.109 153.809 267.109 147.266Z" fill="#4E5660"/>
<path d="M437.127 313.726H74.873V450.355C74.873 484.401 102.473 512.001 136.519 512.001H375.48C409.526 512.001 437.126 484.401 437.126 450.355V313.726H437.127Z" fill="#8DAEE1"/>
<path d="M74.873 313.726H437.127V370.331H74.873V313.726Z" fill="#6A95D6"/>
<path d="M307.359 325.491C299.07 317.802 285.675 323.901 285.93 335.204C286.404 356.164 278.649 377.272 262.653 393.269C246.656 409.266 225.548 417.02 204.588 416.546C193.285 416.291 187.187 429.686 194.875 437.975C209.705 453.962 231.021 463.846 254.642 463.438C297.248 462.702 332.085 427.865 332.822 385.259C333.23 361.637 323.346 340.321 307.359 325.491Z" fill="#F6EE86"/>
<path d="M285.93 335.204C286.201 347.194 283.767 359.228 278.651 370.33H331.688C328.677 352.74 319.896 337.121 307.359 325.491C299.07 317.803 285.674 323.901 285.93 335.204Z" fill="#EED076"/>
<path d="M439.439 339.425H72.561C61.756 339.425 52.996 330.666 52.996 319.86V302.375C52.996 291.57 61.756 282.81 72.561 282.81H439.438C450.243 282.81 459.003 291.57 459.003 302.375V319.86C459.004 330.666 450.244 339.425 439.439 339.425Z" fill="#FBF1CF"/>
<path d="M344.001 41.5225C348.151 30.4655 347.664 15.4715 344.486 5.21749C342.792 -0.247512 335.793 -1.80051 331.902 2.39349C326.021 8.73349 317.174 16.6855 310.221 22.0815C293.672 15.4795 275.327 11.7865 256 11.7865C229.208 11.7865 204.292 18.8635 183.465 31.0005C169.643 30.3545 152.946 24.3075 140.219 18.0535C134.496 15.2415 128.15 20.4865 129.803 26.6455C133.215 39.3625 138.992 55.1065 146.234 63.6515C141.257 70.2085 136.99 77.2245 133.571 84.6315C152.422 82.8785 219.292 78.8595 252.163 57.3655C254.151 56.0655 256.799 56.7635 257.971 58.8295C265.196 71.5645 284.521 87.9685 300.616 92.9235C303.488 93.8075 306.583 92.5635 307.979 89.9025C310.61 84.8895 312.792 77.5295 313.781 70.9335C314.223 67.9875 317.569 66.4905 320.071 68.1085C335.347 77.9865 367.663 93.8755 382.254 94.0315C375.043 73.5385 361.64 55.4725 344.001 41.5225Z" fill="#6E768F"/>
<path d="M174.798 274.704C174.798 257.884 181.997 242.75 193.477 232.2C181.565 226.525 170.752 219.278 161.383 210.774C118.76 241.942 113.414 297.904 112.828 315.493C112.32 330.753 124.277 343.536 139.538 344.044C154.8 344.551 167.581 332.593 168.089 317.334C168.241 312.748 169.182 297.81 174.798 282.833V274.704Z" fill="#FFD3BD"/>
<path d="M114.353 298.286C128.373 298.049 152.231 299.094 169.208 305.227C170.132 298.821 171.798 290.833 174.798 282.833V274.703C174.798 257.883 181.997 242.749 193.477 232.199C181.566 226.524 170.752 219.277 161.384 210.773C128.445 234.861 117.775 273.738 114.353 298.286Z" fill="#B0ADE2"/>
</g>
<defs>
<clipPath id="clip0">
<rect width="512" height="512" fill="white"/>
</clipPath>
</defs>
</svg>

<svg xmlns="http://www.w3.org/2000/svg" width="512" height="512" fill="none"><g clip-path="url(#a)"><path fill="#EED076" d="M80.752 167.883h350.496v166.181H80.752V167.883Z"/><path fill="#8DAEE1" d="M388.508 37.11H123.492c-29.61 0-53.613 24.002-53.613 53.612v77.16c0 29.61 24.004 53.613 53.613 53.613h265.016c29.61 0 53.613-24.004 53.613-53.613v-77.16c0-29.61-24.003-53.613-53.613-53.613Z"/><path fill="#6A95D6" d="M419.1 131.647c.692-35.336-12.249-68.323-35.109-94.538H123.492a53.407 53.407 0 0 0-21.539 4.516c2.058 6.746 4.693 14.15 8.002 21.318-10.739 19.871-17.086 41.404-17.086 66.002 0 34.151 12.56 66.409 35.707 92.549h259.931c29.61 0 53.613-24.003 53.613-53.613v-26.73a59.021 59.021 0 0 0-23.02-9.504Z"/><path fill="#FFD3BD" d="M428.797 170.201c-10.527-11.06-28.025-11.493-39.085-.965-39.031 37.151-79.954 51.938-87.857 52.716-15.093.049-27.391 12.22-27.548 27.359-.158 15.267 12.091 27.772 27.358 27.93l.406.002c26.225 0 81.528-25.856 125.762-67.957 11.059-10.527 11.491-28.026.964-39.085Z"/><path fill="#B0ADE2" d="M380.049 177.949c-35.885 30.762-70.942 43.288-78.194 44.001-15.093.049-27.391 12.22-27.548 27.359-.158 15.267 12.091 27.772 27.358 27.93l.406.002c23.891 0 71.91-21.464 113.711-57.113-21.042-7.914-32.379-27.479-35.733-42.179Z"/><path fill="#D1C4E9" d="M279.483 216.985h-46.966c-31.877 0-57.719 25.841-57.719 57.719v63.98c0 44.846 36.355 81.202 81.202 81.202 44.846 0 81.202-36.355 81.202-81.202v-63.98c0-31.877-25.842-57.719-57.719-57.719Z"/><path fill="#FFD3BD" d="M320.071 68.109c-2.502-1.618-5.848-.121-6.29 2.825-.989 6.596-3.171 13.956-5.802 18.969-1.396 2.66-4.491 3.905-7.363 3.02-16.095-4.955-35.42-21.36-42.645-34.093-1.172-2.066-3.82-2.764-5.808-1.464-32.871 21.494-99.74 25.513-118.592 27.266-6.31 13.672-9.797 28.631-9.797 44.315 0 64.706 59.199 117.16 132.226 117.16 73.026 0 132.226-52.454 132.226-117.16a104.9 104.9 0 0 0-5.972-34.914c-14.591-.157-46.907-16.046-62.183-25.924Z"/><path fill="#EDA1AB" d="M180.533 178.782c15.379 0 27.846-9.928 27.846-22.175s-12.467-22.175-27.846-22.175-27.846 9.928-27.846 22.175 12.467 22.175 27.846 22.175Zm150.934 0c15.379 0 27.846-9.928 27.846-22.175s-12.467-22.175-27.846-22.175-27.846 9.928-27.846 22.175 12.467 22.175 27.846 22.175Z"/><path fill="#4E5660" d="M196.761 141.699a26.548 26.548 0 0 1-20.021-9.118 7.5 7.5 0 0 1 .727-10.582 7.5 7.5 0 0 1 10.581.727 11.558 11.558 0 0 0 8.713 3.973c3.337 0 6.514-1.448 8.715-3.973a7.497 7.497 0 0 1 10.581-.726 7.5 7.5 0 0 1 .726 10.581 26.557 26.557 0 0 1-20.022 9.118Zm118.478 0a26.551 26.551 0 0 1-20.021-9.118 7.498 7.498 0 0 1 .726-10.581 7.498 7.498 0 0 1 10.581.726 11.563 11.563 0 0 0 8.715 3.973c3.337 0 6.513-1.448 8.714-3.973a7.497 7.497 0 0 1 10.581-.726 7.5 7.5 0 0 1 .726 10.581 26.558 26.558 0 0 1-20.022 9.118Zm-48.13 5.567c0-6.543-4.974-11.847-11.109-11.847s-11.109 5.304-11.109 11.847c0 6.543 4.973 11.847 11.109 11.847 6.135 0 11.109-5.304 11.109-11.847Z"/><path fill="#8DAEE1" d="M437.127 313.726H74.873v136.629c0 34.046 27.6 61.646 61.646 61.646H375.48c34.046 0 61.646-27.6 61.646-61.646V313.726h.001Z"/><path fill="#6A95D6" d="M74.873 313.726h362.254v56.605H74.873v-56.605Z"/><path fill="#F6EE86" d="M307.359 325.491c-8.289-7.689-21.684-1.59-21.429 9.713.474 20.96-7.281 42.068-23.277 58.065-15.997 15.997-37.105 23.751-58.065 23.277-11.303-.255-17.401 13.14-9.713 21.429 14.83 15.987 36.146 25.871 59.767 25.463 42.606-.736 77.443-35.573 78.18-78.179.408-23.622-9.476-44.938-25.463-59.768Z"/><path fill="#EED076" d="M285.93 335.204a79.652 79.652 0 0 1-7.279 35.126h53.037c-3.011-17.59-11.792-33.209-24.329-44.839-8.289-7.688-21.685-1.59-21.429 9.713Z"/><path fill="#FBF1CF" d="M439.439 339.425H72.561c-10.805 0-19.565-8.759-19.565-19.565v-17.485c0-10.805 8.76-19.565 19.565-19.565h366.877c10.805 0 19.565 8.76 19.565 19.565v17.485c.001 10.806-8.759 19.565-19.564 19.565Z"/><path fill="#6E768F" d="M344.001 41.523c4.15-11.058 3.663-26.052.485-36.306-1.694-5.465-8.693-7.018-12.584-2.824-5.881 6.34-14.728 14.293-21.681 19.688C293.672 15.48 275.327 11.787 256 11.787c-26.792 0-51.708 7.076-72.535 19.213-13.822-.645-30.519-6.692-43.246-12.947-5.723-2.812-12.069 2.433-10.416 8.592 3.412 12.717 9.189 28.461 16.431 37.007-4.977 6.556-9.244 13.573-12.663 20.98 18.851-1.754 85.721-5.773 118.592-27.267 1.988-1.3 4.636-.602 5.808 1.465 7.225 12.734 26.55 29.139 42.645 34.094 2.872.883 5.967-.36 7.363-3.022 2.631-5.013 4.813-12.373 5.802-18.969.442-2.946 3.788-4.443 6.29-2.825 15.276 9.879 47.592 25.767 62.183 25.923-7.211-20.493-20.614-38.559-38.253-52.509Z"/><path fill="#FFD3BD" d="M174.798 274.704c0-16.82 7.199-31.954 18.679-42.504-11.912-5.675-22.725-12.922-32.094-21.426-42.623 31.168-47.969 87.13-48.555 104.719-.508 15.26 11.449 28.043 26.71 28.551 15.262.507 28.043-11.451 28.551-26.71.152-4.586 1.093-19.524 6.709-34.501v-8.129Z"/><path fill="#B0ADE2" d="M114.353 298.286c14.02-.237 37.878.808 54.855 6.941.924-6.406 2.59-14.394 5.59-22.394v-8.13c0-16.82 7.199-31.954 18.679-42.504-11.911-5.675-22.725-12.922-32.093-21.426-32.939 24.088-43.609 62.965-47.031 87.513Z"/></g><defs><clipPath id="a"><path fill="#fff" d="M0 0h512v512H0z"/></clipPath></defs></svg>
